X:324
T:Sally Gardens
Z: id:dc-reel-302
M:C
L:1/8
K:G Major
BA|G2DG B2GB|dBeB dBAB|d2Bd egdB|AcBA GEDE|!
G2DG B2GB|dBeB dBAB|d2Bd egdB|AcBA G2:|!
Bc|dggf g2de|g2bg ageg|eaag a2eg|a2bg ageg|!
dggf g2de|g2bg ageg|d2Bd egdB|AcBA G2:|!

